dist/assets/images/about/logo-2.svg

<svg width="112" height="64" viewBox="0 0 112 64" fill="none" xmlns="http://www.w3.org/2000/svg">
<path fill-rule="evenodd" clip-rule="evenodd" d="M76.8303 12.9904H78.5793C79.4913 12.9904 80.2783 13.3026 80.9404 13.9396C81.5901 14.5517 81.9274 15.2886 81.9274 16.088C81.9898 22.9701 81.9149 29.8647 81.9149 36.7468V38.5579C82.2896 41.7804 83.7013 44.6282 86.1624 47.1013C88.0488 48.9873 90.21 50.2863 92.6586 51.0232C94.2702 51.5978 97.2934 51.8725 99.0799 51.8725H111.248V39.5571H98.6551C97.8181 39.5197 97.0935 39.2074 96.4689 38.6204C95.8193 38.0084 95.5819 37.2964 95.5694 36.497V24.4939L95.482 13.9896C95.1072 10.7671 93.6955 7.91933 91.2344 5.44626C90.3475 4.55946 89.4105 3.81004 88.3986 3.17304L76.8303 12.9904ZM0 55.757H1.92388C2.43608 55.757 2.87333 55.782 3.23562 55.8319C3.59791 55.8819 3.92272 55.9818 4.23504 56.1567C4.6473 56.394 4.94712 56.7063 5.17199 57.0935C5.38437 57.4807 5.4968 57.9178 5.4968 58.4049C5.4968 58.8421 5.39686 59.2418 5.17199 59.604C4.95962 59.9787 4.67228 60.266 4.2975 60.4908C3.93521 60.7156 3.53544 60.828 3.0982 60.8405L5.37188 63.8632H4.37246L1.62406 60.191H1.86142C2.26118 60.191 2.586 60.1786 2.86084 60.1536C3.13568 60.1286 3.38553 60.0661 3.62289 59.9787C3.9602 59.8288 4.21005 59.604 4.39744 59.3167C4.58483 59.0294 4.67228 58.7047 4.67228 58.3425C4.67228 58.0552 4.60982 57.7929 4.4724 57.5306C4.33498 57.2683 4.14759 57.056 3.92272 56.8936C3.68536 56.7188 3.42301 56.6188 3.14817 56.5689C2.87333 56.5314 2.51104 56.5064 2.08629 56.5064H0.812028V63.8757H0V55.757ZM15.7533 55.757H20.1758V56.4939H16.5529V59.4042H20.0508V60.1411H16.5529V63.1263H20.1758V63.8632H15.7533V55.757ZM63.9003 55.757H64.7124V63.1263H68.0729V63.8632H63.9003V55.757ZM78.0671 55.757H78.8791V63.8507H78.0671V55.757ZM89.6354 55.757H90.7347L95.2696 62.4768V55.757H96.0816V63.8507H95.2696L90.4474 56.7312V63.8507H89.6354V55.757ZM106.85 55.757H111.285V56.4939H107.662V59.4042H111.16V60.1411H107.662V63.1263H111.285V63.8632H106.85V55.757ZM22.5244 32.3253C22.6493 32.3253 22.7618 32.3253 22.8742 32.3128L22.9492 32.3753H23.3864C24.2484 32.3877 25.0229 32.7125 25.6726 33.362C26.3472 34.024 26.672 34.8109 26.672 35.7226L26.8344 38.5579C27.2092 41.7804 28.6209 44.6282 31.0819 47.1013C31.6441 47.6633 32.2313 48.1754 32.8434 48.6251L43.5372 39.5447C42.7127 39.5072 41.9881 39.1949 41.3634 38.6079C40.7138 37.9959 40.4765 37.2839 40.464 36.4845C40.464 36.3472 40.464 36.1348 40.464 35.9974C40.464 34.2113 40.1641 32.5002 39.552 30.8889C39.0148 29.2152 38.2403 27.7289 37.1409 26.3175C39.3896 23.4197 40.464 20.2347 40.464 16.625C40.464 14.8389 40.1641 13.1278 39.552 11.5165C38.7775 9.06844 37.3783 6.90762 35.3919 5.0216C32.7684 2.56102 29.7327 1.13713 26.3097 0.77491C25.7475 0.712459 25.1854 0.674988 24.6232 0.674988H13.6296C6.62115 0.687478 0 5.94587 0 13.0029V51.8975H13.6296V13.0029H23.3864C24.2484 13.0154 25.0229 13.3401 25.6726 13.9896C26.3472 14.6516 26.672 15.4385 26.672 16.3503C26.672 18.661 25.5102 19.8975 22.5119 20.0474C19.1264 20.0474 16.378 22.7952 16.378 26.1801C16.3905 29.5774 19.1389 32.3253 22.5244 32.3253Z" fill="#093A54"/>
<path fill-rule="evenodd" clip-rule="evenodd" d="M30.9951 61.59C31.0076 61.8898 31.0825 62.1521 31.22 62.4019C31.3574 62.6517 31.5573 62.8515 31.7946 63.0014C32.0445 63.1513 32.3068 63.2262 32.6067 63.2262C32.919 63.2262 33.1938 63.1638 33.4437 63.0264C33.6935 62.889 33.9059 62.7016 34.0558 62.4518C34.2057 62.202 34.2807 61.9272 34.2807 61.6275C34.2807 61.4027 34.2307 61.1903 34.1308 60.9905C34.0308 60.7906 33.8934 60.6158 33.7185 60.4784C33.5436 60.341 33.3687 60.2411 33.1813 60.1661C32.9939 60.0912 32.7566 60.0162 32.4692 59.9413C32.1194 59.8539 31.8446 59.7664 31.6322 59.679C31.4198 59.5916 31.22 59.4792 31.0451 59.3293C30.5953 58.9421 30.3705 58.4425 30.3705 57.818C30.3705 57.3933 30.4704 57.0186 30.6828 56.6813C30.8952 56.3566 31.17 56.0943 31.5198 55.9069C31.8696 55.7196 32.2569 55.6322 32.6816 55.6322C33.0814 55.6322 33.4562 55.7321 33.7935 55.9194C34.1308 56.1193 34.4056 56.3816 34.6055 56.7063C34.8054 57.0436 34.9053 57.4058 34.9053 57.818H34.0558C34.0433 57.5432 33.9684 57.3059 33.8309 57.081C33.6935 56.8687 33.5311 56.6938 33.3063 56.5814C33.0939 56.469 32.844 56.4066 32.5692 56.4066C32.3193 56.4066 32.082 56.469 31.8696 56.5939C31.6572 56.7188 31.4823 56.8937 31.3574 57.106C31.2325 57.3183 31.17 57.5557 31.17 57.8055C31.17 58.1052 31.245 58.355 31.3949 58.5299C31.5448 58.7173 31.7197 58.8546 31.9445 58.9421C32.1694 59.0295 32.4443 59.1294 32.7816 59.2169C33.2063 59.3293 33.5186 59.4292 33.7185 59.5166C33.9184 59.5916 34.1308 59.729 34.3307 59.9163C34.568 60.1287 34.7554 60.3785 34.8928 60.6782C35.0302 60.978 35.0927 61.2902 35.0927 61.615C35.0927 62.0522 34.9803 62.4518 34.7554 62.8141C34.5305 63.1763 34.2307 63.4636 33.8559 63.6759C33.4811 63.8882 33.0689 63.9881 32.6316 63.9881C32.1819 63.9881 31.7572 63.8882 31.3699 63.6759C30.9826 63.4636 30.6828 63.1888 30.4579 62.8141C30.233 62.4394 30.1206 62.0272 30.1206 61.5775H30.9951V61.59ZM34.8678 49.9241C35.7298 50.3738 36.6418 50.7485 37.5913 51.0357C39.2028 51.6103 42.2261 51.8851 44.0125 51.8851H56.1804H62.3768H62.5392C63.1139 51.8851 63.6761 51.8476 64.2258 51.7852C67.6488 51.4105 70.6845 49.9991 73.308 47.5385C75.3068 45.6524 76.6935 43.4916 77.4681 41.0435C78.0677 39.4323 78.38 37.7211 78.38 35.935C78.38 31.7758 76.8934 28.0787 73.9076 24.8811C70.9219 21.6587 67.1616 20.0599 62.6142 20.0599C59.1912 20.0599 57.4797 18.8234 57.4797 16.3628C57.4797 15.451 57.817 14.6641 58.4791 14.0021C59.1287 13.3526 59.9033 13.0154 60.7653 13.0154C64.4381 12.9779 69.048 12.9904 73.2955 13.0029L86.1755 2.07394C85.7008 1.8741 85.2136 1.69923 84.7138 1.54935C83.1023 0.974798 80.079 0.700012 78.2926 0.700012H59.5535C58.9788 0.700012 58.4166 0.737483 57.867 0.799934C54.444 1.17464 51.4082 2.58604 48.7847 5.04662C46.7859 6.93265 45.3992 9.09346 44.6247 11.5416C44.025 13.1528 43.7127 14.864 43.7127 16.6501C43.7127 20.8093 45.1993 24.5064 48.1851 27.7164C51.1709 30.9389 54.9312 32.5377 59.4785 32.5377C62.9015 32.5377 64.613 33.7742 64.613 36.2348C64.613 37.1466 64.2757 37.9335 63.6136 38.5955C62.964 39.2449 62.1894 39.5822 61.3274 39.5822H56.2054H47.0857L34.8678 49.9241ZM53.4945 59.7914C53.4945 60.5533 53.2946 61.2653 52.9198 61.9023C52.5326 62.5518 52.0079 63.0639 51.3458 63.4386C50.6836 63.8133 49.9716 64.0006 49.2095 64.0006C48.4599 64.0006 47.7603 63.8133 47.0982 63.4386C46.4361 63.0639 45.9114 62.5643 45.5241 61.9272C45.1369 61.2902 44.937 60.5908 44.937 59.8414C44.937 59.0795 45.1244 58.3675 45.5116 57.718C45.8989 57.0685 46.4111 56.5689 47.0732 56.1942C47.7354 55.8195 48.4474 55.6322 49.2095 55.6322C49.9591 55.6322 50.6711 55.8195 51.3208 56.1817C51.9829 56.5564 52.5076 57.056 52.8949 57.6931C53.2946 58.3425 53.4945 59.0295 53.4945 59.7914ZM49.222 56.4066C48.5974 56.4066 48.0227 56.5689 47.4855 56.8687C46.9483 57.181 46.5236 57.5931 46.2112 58.1302C45.8989 58.6548 45.749 59.2294 45.749 59.8414C45.749 60.4534 45.9114 61.0155 46.2237 61.5276C46.5485 62.0397 46.9733 62.4518 47.5105 62.7516C48.0477 63.0514 48.6223 63.2013 49.222 63.2013C49.6842 63.2013 50.134 63.1138 50.5587 62.939C50.9835 62.7641 51.3582 62.5143 51.6706 62.202C51.9954 61.8898 52.2327 61.5151 52.4201 61.1029C52.595 60.6782 52.6825 60.2411 52.6825 59.7789C52.6825 59.1669 52.5201 58.6048 52.2078 58.0927C51.8954 57.5682 51.4707 57.1685 50.9335 56.8562C50.3963 56.5689 49.8216 56.419 49.222 56.4066Z" fill="#F5770A"/>
<path fill-rule="evenodd" clip-rule="evenodd" d="M107.1 0C106.351 0 105.664 0.312256 105.126 0.811866C104.577 1.38642 104.277 2.03591 104.277 2.86027C104.277 3.60968 104.589 4.25918 105.126 4.79626C105.676 5.37081 106.351 5.60812 107.1 5.60812C107.887 5.60812 108.562 5.37081 109.112 4.79626C109.661 4.24669 109.936 3.60968 109.936 2.86027C109.936 2.0484 109.661 1.39891 109.112 0.811866C108.574 0.312256 107.887 0 107.1 0ZM105.464 1.19906C105.913 0.786886 106.488 0.5121 107.1 0.5121C107.712 0.5121 108.287 0.786886 108.737 1.19906C109.174 1.67369 109.411 2.18579 109.411 2.87276C109.411 3.48478 109.174 4.05933 108.737 4.47151C108.287 4.90867 107.712 5.15847 107.1 5.15847C106.488 5.15847 105.913 4.92116 105.464 4.47151C105.026 4.05933 104.789 3.48478 104.814 2.87276C104.789 2.18579 105.026 1.67369 105.464 1.19906Z" fill="#093A54"/>
<path fill-rule="evenodd" clip-rule="evenodd" d="M105.952 4.27086V1.62292H107.076C107.364 1.62292 107.564 1.64791 107.689 1.69787C107.814 1.74783 107.926 1.83526 108.001 1.94767C108.076 2.07257 108.113 2.20997 108.113 2.35985C108.113 2.55969 108.051 2.72207 107.939 2.84697C107.826 2.97187 107.651 3.0593 107.414 3.09677C107.526 3.15923 107.626 3.23417 107.701 3.3216C107.776 3.39654 107.876 3.54642 108.001 3.74627L108.326 4.25837H107.689L107.301 3.68382C107.164 3.48397 107.064 3.34658 107.014 3.29662C106.964 3.24666 106.914 3.20919 106.852 3.18421C106.789 3.15923 106.702 3.15923 106.577 3.15923H106.464V4.27086H105.952ZM106.489 2.73456H106.889C107.151 2.73456 107.301 2.72207 107.364 2.69709C107.426 2.67211 107.476 2.63464 107.514 2.58467C107.551 2.53471 107.564 2.45977 107.564 2.38483C107.564 2.2974 107.539 2.22246 107.489 2.1725C107.439 2.12253 107.376 2.08506 107.289 2.07257C107.251 2.06008 107.114 2.06008 106.902 2.06008H106.489V2.73456Z" fill="#093A54"/>
</svg>

<svg width="112" height="64" fill="none" xmlns="http://www.w3.org/2000/svg"><path fill-rule="evenodd" clip-rule="evenodd" d="M76.83 12.99h1.75c.911 0 1.698.313 2.36.95.65.612.987 1.349.987 2.148.063 6.882-.012 13.777-.012 20.659v1.81c.375 3.223 1.786 6.071 4.247 8.544 1.887 1.886 4.048 3.185 6.497 3.922 1.611.575 4.634.85 6.42.85h12.169V39.556H98.655c-.837-.037-1.561-.35-2.186-.937-.65-.612-.887-1.324-.9-2.123V24.494l-.087-10.504c-.375-3.223-1.787-6.07-4.248-8.544A16.172 16.172 0 0088.4 3.173L76.83 12.99zM0 55.757h1.924a9.8 9.8 0 011.312.075c.362.05.687.15.999.325a2.5 2.5 0 01.937.937c.212.387.325.824.325 1.31 0 .438-.1.838-.325 1.2-.212.375-.5.662-.874.887a2.356 2.356 0 01-1.2.35l2.274 3.022h-1l-2.748-3.672h.237c.4 0 .725-.012 1-.037.275-.025.525-.088.762-.175a1.752 1.752 0 001.05-1.636 1.7 1.7 0 00-.2-.812 1.837 1.837 0 00-1.324-.962 8.077 8.077 0 00-1.063-.063H.812v7.37H0v-8.119zm15.753 0h4.423v.737h-3.623v2.91h3.498v.737h-3.498v2.985h3.623v.737h-4.423v-8.106zm48.147 0h.812v7.37h3.36v.736H63.9v-8.106zm14.167 0h.812v8.094h-.812v-8.094zm11.568 0h1.1l4.535 6.72v-6.72h.812v8.094h-.812l-4.823-7.12v7.12h-.812v-8.094zm17.215 0h4.435v.737h-3.623v2.91h3.498v.737h-3.498v2.985h3.623v.737h-4.435v-8.106zM22.524 32.325c.125 0 .238 0 .35-.012l.075.062h.437c.862.013 1.637.337 2.287.987.674.662.999 1.449.999 2.36l.162 2.836c.375 3.222 1.787 6.07 4.248 8.543a15.4 15.4 0 001.761 1.524l10.694-9.08c-.824-.038-1.549-.35-2.174-.937-.65-.612-.886-1.324-.899-2.123v-.488c0-1.786-.3-3.497-.912-5.108a14.485 14.485 0 00-2.411-4.572c2.249-2.897 3.323-6.082 3.323-9.692 0-1.786-.3-3.497-.912-5.108-.774-2.449-2.174-4.61-4.16-6.495-2.624-2.461-5.66-3.885-9.082-4.247-.563-.063-1.125-.1-1.687-.1H13.63C6.62.687 0 5.945 0 13.003v38.894h13.63V13.003h9.756c.862.012 1.637.337 2.287.987.674.662.999 1.448.999 2.36 0 2.311-1.162 3.547-4.16 3.697a6.136 6.136 0 00-6.134 6.133c.012 3.397 2.76 6.145 6.146 6.145z" fill="#093A54"/><path fill-rule="evenodd" clip-rule="evenodd" d="M30.995 61.59c.013.3.087.562.225.812.137.25.337.45.575.6.25.15.512.224.812.224.312 0 .587-.062.837-.2.25-.137.462-.324.612-.574.15-.25.225-.525.225-.825 0-.224-.05-.437-.15-.637a1.5 1.5 0 00-.413-.512 2.147 2.147 0 00-.537-.312 6.123 6.123 0 00-.712-.225 6.171 6.171 0 01-.837-.262 2.15 2.15 0 01-.587-.35c-.45-.387-.675-.886-.675-1.511 0-.425.1-.8.313-1.137a2.27 2.27 0 01.837-.774c.35-.187.737-.275 1.162-.275.4 0 .774.1 1.111.287.338.2.613.463.813.787.2.338.3.7.3 1.112h-.85a1.5 1.5 0 00-.225-.737 1.344 1.344 0 00-.525-.5 1.567 1.567 0 00-.737-.174c-.25 0-.487.062-.7.187-.212.125-.387.3-.512.512-.124.212-.187.45-.187.7 0 .3.075.549.225.724.15.187.325.325.55.412.224.087.5.187.837.275.424.112.737.212.937.3.2.075.412.212.612.4.237.212.424.462.562.761.137.3.2.612.2.937 0 .437-.113.837-.338 1.2a2.48 2.48 0 01-.9.86 2.447 2.447 0 01-1.223.313c-.45 0-.875-.1-1.262-.312a2.329 2.329 0 01-.912-.862 2.358 2.358 0 01-.337-1.236h.874v.012zm3.873-11.666c.862.45 1.774.825 2.723 1.112 1.612.574 4.635.85 6.422.85h18.526c.575 0 1.137-.038 1.687-.1 3.423-.376 6.459-1.787 9.082-4.248 1.999-1.886 3.385-4.046 4.16-6.494.6-1.612.912-3.323.912-5.109 0-4.16-1.487-7.856-4.472-11.054-2.986-3.222-6.746-4.821-11.294-4.821-3.423 0-5.134-1.237-5.134-3.697 0-.912.337-1.699 1-2.36.649-.65 1.423-.988 2.285-.988 3.673-.037 8.283-.025 12.53-.012l12.88-10.93a14.637 14.637 0 00-1.461-.524C83.102.975 80.079.7 78.293.7h-18.74c-.574 0-1.136.037-1.686.1-3.423.375-6.459 1.786-9.082 4.247-2 1.886-3.386 4.046-4.16 6.495a14.567 14.567 0 00-.912 5.108c0 4.16 1.486 7.856 4.472 11.066 2.986 3.223 6.746 4.822 11.293 4.822 3.423 0 5.135 1.236 5.135 3.697 0 .912-.337 1.699-1 2.36-.649.65-1.424.987-2.286.987H47.085L34.869 49.924zm18.627 9.867c0 .762-.2 1.474-.575 2.111a4.222 4.222 0 01-1.574 1.537A4.267 4.267 0 0149.21 64a4.21 4.21 0 01-2.112-.562 4.253 4.253 0 01-1.574-1.512 3.958 3.958 0 01-.587-2.086c0-.761.187-1.474.575-2.123.387-.65.9-1.15 1.561-1.524a4.267 4.267 0 012.136-.562c.75 0 1.462.188 2.112.55a4.253 4.253 0 011.574 1.511c.4.65.6 1.337.6 2.098zm-4.273-3.384c-.625 0-1.2.162-1.736.462a3.43 3.43 0 00-1.275 1.261 3.29 3.29 0 00-.462 1.711c0 .612.162 1.175.475 1.687.325.512.75.924 1.287 1.224a3.494 3.494 0 003.048.187c.424-.175.8-.425 1.112-.737.324-.312.562-.687.75-1.1.174-.424.261-.86.261-1.323 0-.612-.162-1.174-.474-1.686a3.46 3.46 0 00-1.274-1.237 3.758 3.758 0 00-1.712-.45z" fill="#F5770A"/><path fill-rule="evenodd" clip-rule="evenodd" d="M107.1 0c-.749 0-1.436.312-1.974.812-.549.574-.849 1.224-.849 2.048 0 .75.312 1.4.849 1.936.55.575 1.225.812 1.974.812.787 0 1.462-.237 2.012-.812.549-.55.824-1.186.824-1.936 0-.812-.275-1.461-.824-2.048-.538-.5-1.225-.812-2.012-.812zm-1.636 1.2c.449-.413 1.024-.688 1.636-.688.612 0 1.187.275 1.637.687.437.475.674.987.674 1.674a2.18 2.18 0 01-.674 1.599 2.343 2.343 0 01-1.637.686 2.286 2.286 0 01-1.636-.686 2.064 2.064 0 01-.65-1.6c-.025-.686.212-1.198.65-1.673z" fill="#093A54"/><path fill-rule="evenodd" clip-rule="evenodd" d="M105.952 4.27V1.624h1.124c.288 0 .488.025.613.075a.68.68 0 01.312.25.785.785 0 01.112.412c0 .2-.062.362-.174.487-.113.125-.288.212-.525.25.112.062.212.137.287.225.075.075.175.224.3.424l.325.512h-.637l-.388-.574a3.716 3.716 0 00-.287-.387.479.479 0 00-.162-.113c-.063-.025-.15-.025-.275-.025h-.113v1.112h-.512zm.537-1.535h.4c.262 0 .412-.013.475-.038a.347.347 0 00.15-.112.344.344 0 00.05-.2.294.294 0 00-.075-.212.341.341 0 00-.2-.1c-.038-.013-.175-.013-.387-.013h-.413v.675z" fill="#093A54"/></svg>
